Numix-GalliumOS/32/categories/preferences-system-network-proxy.svg

<?xml version="1.0" encoding="UTF-8" standalone="no"?>
<svg
   xmlns:dc="http://purl.org/dc/elements/1.1/"
   xmlns:cc="http://creativecommons.org/ns#"
   xmlns:rdf="http://www.w3.org/1999/02/22-rdf-syntax-ns#"
   xmlns:svg="http://www.w3.org/2000/svg"
   xmlns="http://www.w3.org/2000/svg"
   xmlns:sodipodi="http://sodipodi.sourceforge.net/DTD/sodipodi-0.dtd"
   xmlns:inkscape="http://www.inkscape.org/namespaces/inkscape"
   width="32"
   height="32"
   viewBox="0 0 32 32"
   id="svg2"
   version="1.1"
   inkscape:version="0.91 r"
   sodipodi:docname="preferences-system-network-proxy.svg">
  <metadata
     id="metadata28">
    <rdf:RDF>
      <cc:Work
         rdf:about="">
        <dc:format>image/svg+xml</dc:format>
        <dc:type
           rdf:resource="http://purl.org/dc/dcmitype/StillImage" />
        <dc:title />
      </cc:Work>
    </rdf:RDF>
  </metadata>
  <defs
     id="defs26" />
  <sodipodi:namedview
     pagecolor="#ffffff"
     bordercolor="#666666"
     borderopacity="1"
     objecttolerance="10"
     gridtolerance="10"
     guidetolerance="10"
     inkscape:pageopacity="0"
     inkscape:pageshadow="2"
     inkscape:window-width="1920"
     inkscape:window-height="1056"
     id="namedview24"
     showgrid="true"
     inkscape:zoom="29.5"
     inkscape:cx="15.286596"
     inkscape:cy="11.733463"
     inkscape:window-x="0"
     inkscape:window-y="24"
     inkscape:window-maximized="1"
     inkscape:current-layer="svg2">
    <inkscape:grid
       type="xygrid"
       id="grid4156" />
  </sodipodi:namedview>
  <path
     style="fill:#e78684;fill-opacity:1"
     d="M 16.001953 3.5 C 13.976527 3.5 12.068803 3.9967193 10.375 4.8554688 C 6.3047691 6.9190547 3.5019531 11.132875 3.5019531 16 C 3.5019531 20.874259 6.3126457 25.094039 10.392578 27.154297 C 10.393976 27.157507 10.395085 27.160853 10.396484 27.164062 L 10.404297 27.160156 C 12.090792 28.00957 13.988315 28.5 16.001953 28.5 C 18.015592 28.5 19.913114 28.00957 21.599609 27.160156 L 21.607422 27.164062 C 21.608819 27.160853 21.609932 27.157507 21.611328 27.154297 C 25.691261 25.094039 28.501953 20.874259 28.501953 16 C 28.501953 11.132875 25.699137 6.9190548 21.628906 4.8554688 C 19.935103 3.9967193 18.027379 3.5 16.001953 3.5 z M 15 5.5507812 L 15 10 L 10.978516 10 C 11.241598 8.7512785 11.578423 7.5174285 11.988281 6.3105469 C 12.931606 5.9195212 13.938934 5.6506167 15 5.5507812 z M 17 5.5507812 C 18.061646 5.6504669 19.070005 5.9192649 20.013672 6.3105469 C 20.422971 7.5175512 20.760718 8.7511356 21.023438 10 L 17 10 L 17 5.5507812 z M 9.4355469 7.8261719 C 9.242842 8.5450105 9.0751035 9.2705722 8.9296875 10 L 7.3886719 10 C 7.9617642 9.1785102 8.6571735 8.4529974 9.4355469 7.8261719 z M 22.568359 7.8300781 C 23.34492 8.4562151 24.039334 9.1799773 24.611328 10 L 23.072266 10 C 22.927314 9.2718647 22.760364 8.5476682 22.568359 7.8300781 z M 13.132812 11 L 18.867188 11 C 18.940468 11 19 11.062797 19 11.140625 L 19 12 L 21.382812 12 C 21.5276 12.999198 21.62451 14.00074 21.671875 15 L 19 15 L 19 17 L 21.695312 17 C 21.675465 18.011234 21.60671 19.014241 21.480469 20 L 19 20 L 19 20.859375 C 19 20.937203 18.940468 21 18.867188 21 L 13.132812 21 C 13.059532 21 13 20.937203 13 20.859375 L 13 20 L 10.519531 20 C 10.393121 19.014294 10.324559 18.011177 10.304688 17 L 13 17 L 13 15 L 10.330078 15 C 10.377544 14.001388 10.472279 12.998548 10.617188 12 L 13 12 L 13 11.140625 C 13 11.062797 13.059532 11 13.132812 11 z M 6.2929688 12 L 8.5898438 12 C 8.4522945 12.99875 8.3615662 13.999583 8.3164062 15 L 5.5507812 15 C 5.6516434 13.946202 5.9064714 12.939381 6.2929688 12 z M 23.412109 12 L 25.707031 12 C 26.093482 12.939464 26.348342 13.946197 26.449219 15 L 23.685547 15 C 23.640445 13.999632 23.549462 12.998703 23.412109 12 z M 5.5488281 17 L 8.2929688 17 C 8.3116274 18.008248 8.3788501 19.010038 8.4980469 20 L 6.296875 20 C 5.9100602 19.059988 5.6480126 18.055463 5.5488281 17 z M 23.707031 17 L 26.451172 17 C 26.352004 18.055591 26.089893 19.059897 25.703125 20 L 23.501953 20 C 23.62098 19.010042 23.688407 18.008243 23.707031 17 z M 7.3828125 22 L 8.8085938 22 C 8.9453317 22.700531 9.1147761 23.390965 9.3066406 24.072266 C 8.5787985 23.468092 7.9248757 22.777939 7.3828125 22 z M 10.861328 22 L 15 22 L 15 26.449219 C 13.92694 26.348254 12.908082 26.075736 11.955078 25.677734 C 11.491704 24.50198 11.12792 23.270761 10.861328 22 z M 17 22 L 21.140625 22 C 20.87438 23.271092 20.51167 24.501703 20.048828 25.677734 C 19.09503 26.075985 18.074141 26.348359 17 26.449219 L 17 22 z M 23.193359 22 L 24.619141 22 C 24.077552 22.777775 23.424573 23.468329 22.697266 24.072266 C 22.888832 23.391051 23.056834 22.700438 23.193359 22 z "
     id="path6" />
  <g
     style="fill:none;stroke:#52c8ff;stroke-width:2.01698375;stroke-miterlimit:4;stroke-dasharray:none"
     id="g14"
     transform="matrix(0.99157968,0,0,0.99157968,0.30128272,0.30127777)">
    <g
       style="stroke-width:2.01698375;stroke-miterlimit:4;stroke-dasharray:none"
       id="g16" />
  </g>
  <rect
     style="opacity:1;fill:none;fill-opacity:1;fill-rule:nonzero;stroke:#e78684;stroke-width:1.99999988;stroke-linecap:round;stroke-linejoin:miter;stroke-miterlimit:4;stroke-dasharray:none;stroke-dashoffset:0;stroke-opacity:1"
     id="rect4187"
     width="8"
     height="12"
     x="12"
     y="10"
     rx="0.17636688"
     ry="0.16858146" />
  <circle
     style="opacity:1;fill:#e78684;fill-opacity:1;fill-rule:nonzero;stroke:none;stroke-width:2;stroke-linecap:round;stroke-linejoin:miter;stroke-miterlimit:4;stroke-dasharray:none;stroke-dashoffset:0;stroke-opacity:1"
     id="path4217"
     cx="17"
     cy="16"
     r="1" />
</svg>

<svg xmlns="http://www.w3.org/2000/svg" viewBox="0 0 32 32">
 <path d="m 16 3.5 c -2.025 0 -3.933 0.497 -5.627 1.355 c -4.07 2.064 -6.873 6.277 -6.873 11.145 c 0 4.874 2.811 9.09 6.891 11.154 c 0.001 0.003 0.003 0.007 0.004 0.01 l 0.008 -0.004 c 1.686 0.849 3.584 1.34 5.598 1.34 c 2.01 0 3.911 -0.49 5.598 -1.34 l 0.008 0.004 c 0.001 -0.003 0.003 -0.007 0.004 -0.01 c 4.08 -2.06 6.891 -6.28 6.891 -11.154 c 0 -4.867 -2.803 -9.08 -6.873 -11.145 c -1.694 -0.859 -3.602 -1.355 -5.627 -1.355 z m -1 2.051 l 0 4.449 l -4.02 0 c 0.263 -1.249 0.6 -2.483 1.01 -3.689 c 0.943 -0.391 1.951 -0.66 3.01 -0.76 z m 2 0 c 1.062 0.1 2.07 0.368 3.01 0.76 c 0.409 1.207 0.747 2.441 1.01 3.689 l -4.02 0 l 0 -4.449 z m -7.564 2.275 c -0.193 0.719 -0.36 1.444 -0.506 2.174 l -1.541 0 c 0.573 -0.821 1.269 -1.547 2.047 -2.174 z m 13.13 0.004 c 0.777 0.626 1.471 1.35 2.043 2.17 l -1.539 0 c -0.145 -0.728 -0.312 -1.452 -0.504 -2.17 z m -9.436 3.17 l 5.734 0 c 0.073 0 0.133 0.063 0.133 0.141 l 0 0.859 l 2.383 0 c 0.145 0.999 0.242 2 0.289 3 l -2.672 0 l 0 2 l 2.695 0 c -0.02 1.011 -0.089 2.01 -0.215 3 l -2.48 0 l 0 0.859 c 0 0.078 -0.06 0.141 -0.133 0.141 l -5.734 0 c -0.073 0 -0.133 -0.063 -0.133 -0.141 l 0 -0.859 l -2.48 0 c -0.126 -0.986 -0.195 -1.989 -0.215 -3 l 2.695 0 l 0 -2 l -2.67 0 c 0.047 -0.999 0.142 -2 0.287 -3 l 2.383 0 l 0 -0.859 c 0 -0.078 0.06 -0.141 0.133 -0.141 z m -6.84 1 l 2.297 0 c -0.138 0.999 -0.228 2 -0.273 3 l -2.766 0 c 0.101 -1.054 0.356 -2.061 0.742 -3 z m 17.12 0 l 2.295 0 c 0.386 0.939 0.641 1.946 0.742 3 l -2.764 0 c -0.045 -1 -0.136 -2 -0.273 -3 z m -17.863 5 l 2.744 0 c 0.019 1.01 0.086 2.01 0.205 3 l -2.201 0 c -0.387 -0.94 -0.649 -1.945 -0.748 -3 z m 18.16 0 l 2.744 0 c -0.099 1.056 -0.361 2.06 -0.748 3 l -2.201 0 c 0.119 -0.99 0.186 -1.992 0.205 -3 z m -16.324 5 l 1.426 0 c 0.137 0.701 0.306 1.391 0.498 2.072 c -0.728 -0.604 -1.382 -1.294 -1.924 -2.072 z m 3.479 0 l 4.139 0 l 0 4.449 c -1.073 -0.101 -2.092 -0.373 -3.045 -0.771 c -0.463 -1.176 -0.827 -2.407 -1.094 -3.678 z m 6.139 0 l 4.141 0 c -0.266 1.271 -0.629 2.502 -1.092 3.678 c -0.954 0.398 -1.975 0.671 -3.049 0.771 l 0 -4.449 z m 6.193 0 l 1.426 0 c -0.542 0.778 -1.195 1.468 -1.922 2.072 c 0.192 -0.681 0.36 -1.372 0.496 -2.072 z" style="fill:#e78684;fill-opacity:1"/>
 <rect width="8" height="12" x="12" y="10" rx="0.176" ry="0.169" style="stroke-dasharray:none;stroke-opacity:1;fill:none;opacity:1;stroke-miterlimit:4;fill-opacity:1;stroke:#e78684;fill-rule:nonzero;stroke-linecap:round;stroke-linejoin:miter;stroke-width:2;stroke-dashoffset:0"/>
 <circle cx="17" cy="16" r="1" style="fill:#e78684;opacity:1;fill-opacity:1;stroke:none;fill-rule:nonzero"/>
</svg>
